assets/svg/fscs.svg

<?xml version="1.0" encoding="UTF-8"?>
<svg width="72px" height="36px" viewBox="0 0 72 36" version="1.1" xmlns="http://www.w3.org/2000/svg" xmlns:xlink="http://www.w3.org/1999/xlink">
    <!-- Generator: Sketch 43.2 (39069) - http://www.bohemiancoding.com/sketch -->
    <title>Page 1</title>
    <desc>Created with Sketch.</desc>
    <defs>
        <polygon id="path-1" points="0 17.6941 0 35.388 71.176 35.388 71.176 17.6941 71.176 0.0002 0 0.0002"></polygon>
    </defs>
    <g id="Page-1" stroke="none" stroke-width="1" fill="none" fill-rule="evenodd">
        <g>
            <mask id="mask-2" fill="white">
                <use xlink:href="#path-1"></use>
            </mask>
            <g id="Clip-2"></g>
            <path d="M33.593,4.6782 C32.404,4.1572 31.446,3.8952 30.718,3.8952 C27.582,3.8952 24.897,6.4312 22.787,11.5022 L29.243,11.5022 L27.489,14.9332 L21.511,14.9332 L17.82,23.8932 C14.41,31.5592 9.645,35.3882 3.509,35.3882 C2.049,35.3882 0.881,35.1262 0,34.6042 L1.893,30.7102 C3.084,31.2292 4.041,31.4912 4.768,31.4912 C7.903,31.4912 10.526,28.9562 12.636,23.8882 L13.847,20.9562 L0.408,20.9562 L2.176,17.5412 L15.128,17.5412 L16.233,14.9332 L4.962,14.9412 L6.727,11.4992 L17.661,11.5022 C21.07,3.8362 25.842,0.0002 31.978,0.0002 C33.439,0.0002 35.144,0.4602 36.024,0.9812 L33.593,4.6782 M41.052,12.1622 C40.098,11.2352 39.038,10.7742 37.878,10.7742 C37.106,10.7742 36.429,10.9722 35.845,11.3672 C35.264,11.7632 34.954,12.2832 34.916,12.9302 C34.889,13.4032 35.025,13.8082 35.328,14.1462 C35.625,14.4872 36.156,14.8652 36.915,15.2872 L39.01,16.4582 C39.659,16.8172 40.131,17.2802 40.428,17.8432 C40.727,18.4092 40.856,19.0252 40.819,19.6942 C40.718,21.4612 40,22.8572 38.66,23.8862 C37.321,24.9132 35.664,25.4272 33.688,25.4272 C31.95,25.4272 30.415,24.9942 29.085,24.1312 L30.77,21.3522 C31.15,21.7522 31.705,22.1212 32.437,22.4552 C33.171,22.7902 33.805,22.9582 34.341,22.9582 C35.257,22.9582 36.029,22.7092 36.654,22.2172 C37.28,21.7242 37.616,21.0572 37.665,20.2142 C37.687,19.7852 37.551,19.3992 37.257,19.0612 C36.964,18.7222 36.442,18.3302 35.696,17.8902 L33.586,16.6892 C32.938,16.3082 32.464,15.8272 32.162,15.2482 C31.861,14.6682 31.727,14.0492 31.766,13.3902 C31.851,11.8592 32.516,10.6282 33.762,9.7002 C35.007,8.7702 36.498,8.3032 38.235,8.3032 C39.437,8.3032 40.864,8.6852 42.517,9.4462 L41.052,12.1622 M56.779,11.6302 C56.069,11.0592 55.091,10.7742 53.843,10.7742 C51.946,10.7742 50.372,11.5232 49.117,13.0172 C47.861,14.5142 47.174,16.3512 47.05,18.5292 C46.974,19.8672 47.291,20.9332 48.005,21.7302 C48.718,22.5282 49.559,22.9232 50.528,22.9232 C52.022,22.9232 53.481,22.4622 54.903,21.5412 L54.404,24.5392 C53.024,25.1322 51.532,25.4272 49.928,25.4272 C47.891,25.4272 46.359,24.8442 45.335,23.6802 C44.311,22.5122 43.852,20.9622 43.962,19.0322 C44.141,15.8872 45.148,13.3142 46.99,11.3092 C48.832,9.3062 51.088,8.3032 53.761,8.3032 C55.346,8.3032 56.572,8.5802 57.447,9.1272 L56.779,11.6302 M69.712,12.1622 C68.755,11.2352 67.696,10.7742 66.536,10.7742 C65.764,10.7742 65.089,10.9722 64.507,11.3672 C63.924,11.7632 63.614,12.2832 63.579,12.9302 C63.55,13.4032 63.686,13.8082 63.987,14.1462 C64.288,14.4872 64.817,14.8652 65.573,15.2872 L67.671,16.4582 C68.318,16.8172 68.791,17.2802 69.089,17.8432 C69.387,18.4092 69.516,19.0252 69.477,19.6942 C69.378,21.4612 68.659,22.8572 67.319,23.8862 C65.981,24.9132 64.325,25.4272 62.348,25.4272 C60.61,25.4272 59.076,24.9942 57.746,24.1312 L59.43,21.3522 C59.809,21.7522 60.365,22.1212 61.096,22.4552 C61.832,22.7902 62.465,22.9582 63.001,22.9582 C63.918,22.9582 64.69,22.7092 65.312,22.2172 C65.938,21.7242 66.274,21.0572 66.323,20.2142 C66.348,19.7852 66.212,19.3992 65.917,19.0612 C65.621,18.7222 65.101,18.3302 64.356,17.8902 L62.245,16.6892 C61.597,16.3082 61.122,15.8272 60.821,15.2482 C60.522,14.6682 60.387,14.0492 60.426,13.3902 C60.51,11.8592 61.178,10.6282 62.423,9.7002 C63.667,8.7702 65.157,8.3032 66.893,8.3032 C68.096,8.3032 69.523,8.6852 71.176,9.4462 L69.712,12.1622" id="Fill-1" fill="#692772" mask="url(#mask-2)"></path>
        </g>
    </g>
</svg>

<svg id="c3715cb4-3660-49e6-a0e8-1ee30cebe4dd" data-name="Layer 1" xmlns="http://www.w3.org/2000/svg" xmlns:xlink="http://www.w3.org/1999/xlink" viewBox="0 0 71.18 35.39">
  <defs>
    <mask id="40060487-017e-4a80-a790-240568be2b0b" x="0" y="0" width="71.18" height="35.39" maskUnits="userSpaceOnUse">
      <g transform="translate(0 0)">
        <g id="2036a2c5-bc24-4af3-aaaa-9bc99450eeef" data-name="mask-2">
          <polygon id="5bd629e4-c591-495a-bb18-78ab65f53f14" data-name="path-1" points="0 17.69 0 35.39 71.18 35.39 71.18 17.69 71.18 0 0 0 0 17.69" style="fill: #fff"/>
        </g>
      </g>
    </mask>
  </defs>
  <title>fscs</title>
  <g id="346fb742-cf12-4664-b630-1241060f85d8" data-name="Page-1">
    <g style="mask: url(#40060487-017e-4a80-a790-240568be2b0b)">
      <path id="3bc88e9a-ec27-49b5-8fcb-2633c0fd0f9d" data-name="Fill-1" d="M33.59,4.68a7.67,7.67,0,0,0-2.87-.78c-3.14,0-5.82,2.54-7.93,7.61h6.46l-1.75,3.43h-6l-3.69,9Q12.7,35.39,3.51,35.39A6.84,6.84,0,0,1,0,34.6l1.89-3.89a7.71,7.71,0,0,0,2.88.78q4.7,0,7.87-7.6L13.85,21H.41l1.77-3.41h13l1.1-2.61H5L6.73,11.5H17.66Q22.77,0,32,0a9,9,0,0,1,4,1l-2.43,3.7m7.46,7.48a4.46,4.46,0,0,0-3.17-1.39,3.54,3.54,0,0,0-2,.59,2,2,0,0,0-.93,1.56,1.61,1.61,0,0,0,.41,1.22,6.12,6.12,0,0,0,1.59,1.14L39,16.46a3.41,3.41,0,0,1,1.42,1.39,3.47,3.47,0,0,1,.39,1.85,5.42,5.42,0,0,1-2.16,4.19,7.93,7.93,0,0,1-5,1.54,8.27,8.27,0,0,1-4.6-1.3l1.69-2.78a5.34,5.34,0,0,0,1.67,1.1,4.73,4.73,0,0,0,1.9.5,3.63,3.63,0,0,0,2.31-.74,2.62,2.62,0,0,0,1-2,1.58,1.58,0,0,0-.41-1.15,6.51,6.51,0,0,0-1.56-1.17l-2.11-1.2a3.62,3.62,0,0,1-1.42-1.44,3.51,3.51,0,0,1-.4-1.86,4.73,4.73,0,0,1,2-3.69,7.26,7.26,0,0,1,4.47-1.4,10.58,10.58,0,0,1,4.28,1.14l-1.47,2.72m15.73-.53a4.56,4.56,0,0,0-2.94-.86A5.92,5.92,0,0,0,49.12,13,9.13,9.13,0,0,0,47,18.53a4.23,4.23,0,0,0,1,3.2,3.28,3.28,0,0,0,2.52,1.19,8,8,0,0,0,4.38-1.38l-.5,3a11.22,11.22,0,0,1-4.48.89,5.8,5.8,0,0,1-4.59-1.75A6.23,6.23,0,0,1,44,19a12,12,0,0,1,3-7.72,8.84,8.84,0,0,1,6.77-3,7,7,0,0,1,3.69.82l-.67,2.5m12.93.53a4.47,4.47,0,0,0-3.18-1.39,3.52,3.52,0,0,0-2,.59,2,2,0,0,0-.93,1.56A1.61,1.61,0,0,0,64,14.15a6.24,6.24,0,0,0,1.59,1.14l2.1,1.17a3.43,3.43,0,0,1,1.42,1.39,3.46,3.46,0,0,1,.39,1.85,5.41,5.41,0,0,1-2.16,4.19,7.92,7.92,0,0,1-5,1.54,8.27,8.27,0,0,1-4.6-1.3l1.68-2.78a5.33,5.33,0,0,0,1.67,1.1A4.74,4.74,0,0,0,63,23a3.61,3.61,0,0,0,2.31-.74,2.62,2.62,0,0,0,1-2,1.56,1.56,0,0,0-.41-1.15,6.59,6.59,0,0,0-1.56-1.17l-2.11-1.2a3.61,3.61,0,0,1-1.42-1.44,3.53,3.53,0,0,1-.4-1.86,4.73,4.73,0,0,1,2-3.69,7.26,7.26,0,0,1,4.47-1.4,10.58,10.58,0,0,1,4.28,1.14l-1.46,2.72" transform="translate(0 0)" style="fill: #692772"/>
    </g>
  </g>
</svg>
